resources/haticons/SVG/scanner.svg

<!-- Generated by IcoMoon.io -->
<svg version="1.1" xmlns="http://www.w3.org/2000/svg" width="24" height="24" viewBox="0 0 24 24">
<title>scanner</title>
<path d="M18.984 17.016v-2.016h-9.984v2.016h9.984zM6.984 17.016v-2.016h-1.969v2.016h1.969zM19.781 10.688q0.516 0.141 0.867 0.68t0.352 1.148v5.484q0 0.797-0.609 1.406t-1.406 0.609h-13.969q-0.797 0-1.406-0.609t-0.609-1.406v-3.984q0-0.797 0.609-1.406t1.406-0.609h12.563l-14.063-5.109 0.703-1.875z"></path>
</svg>

<svg xmlns="http://www.w3.org/2000/svg" width="24" height="24"><path d="M18.984 17.016V15H9v2.016h9.984zm-12 0V15H5.015v2.016h1.969zm12.797-6.328q.516.141.867.68T21 12.516V18q0 .797-.609 1.406t-1.406.609H5.016q-.797 0-1.406-.609T3.001 18v-3.984q0-.797.609-1.406t1.406-.609h12.563L3.516 6.892l.703-1.875z"/></svg>
